Numix-Light/16/status/indicator-keyboard-Mt-2.svg

<?xml version="1.0" encoding="UTF-8" standalone="no"?>
<svg
   xmlns:dc="http://purl.org/dc/elements/1.1/"
   xmlns:cc="http://creativecommons.org/ns#"
   xmlns:rdf="http://www.w3.org/1999/02/22-rdf-syntax-ns#"
   xmlns:svg="http://www.w3.org/2000/svg"
   xmlns="http://www.w3.org/2000/svg"
   xmlns:sodipodi="http://sodipodi.sourceforge.net/DTD/sodipodi-0.dtd"
   xmlns:inkscape="http://www.inkscape.org/namespaces/inkscape"
   viewBox="0 0 16 16"
   id="svg2"
   version="1.1"
   inkscape:version="0.91 r13725"
   sodipodi:docname="indicator-keyboard-Mt-2.svg">
  <metadata
     id="metadata14">
    <rdf:RDF>
      <cc:Work
         rdf:about="">
        <dc:format>image/svg+xml</dc:format>
        <dc:type
           rdf:resource="http://purl.org/dc/dcmitype/StillImage" />
      </cc:Work>
    </rdf:RDF>
  </metadata>
  <defs
     id="defs12" />
  <sodipodi:namedview
     pagecolor="#ffffff"
     bordercolor="#666666"
     borderopacity="1"
     objecttolerance="10"
     gridtolerance="10"
     guidetolerance="10"
     inkscape:pageopacity="0"
     inkscape:pageshadow="2"
     inkscape:window-width="640"
     inkscape:window-height="480"
     id="namedview10"
     showgrid="false"
     inkscape:zoom="14.75"
     inkscape:cx="8"
     inkscape:cy="8"
     inkscape:window-x="65"
     inkscape:window-y="24"
     inkscape:window-maximized="0"
     inkscape:current-layer="svg2" />
  <path
     style="fill:#353535;fill-opacity:1"
     d="M 1.5996094 0 C 0.71320937 2.9605947e-16 0 0.71320937 0 1.5996094 L 0 14.400391 C 2.9605947e-16 15.286791 0.71320937 16 1.5996094 16 L 14.400391 16 C 15.286791 16 16 15.286791 16 14.400391 L 16 1.5996094 C 16 0.71320937 15.286791 0 14.400391 0 L 1.5996094 0 z M 1.7324219 4.859375 L 2.2714844 4.859375 C 2.4514844 5.159375 2.6436563 5.5063438 2.8476562 5.9023438 C 3.0516563 6.2923438 3.2531719 6.7009531 3.4511719 7.1269531 C 3.6551719 7.5469531 3.8491563 7.9649063 4.0351562 8.3789062 C 4.2271562 8.7869062 4.3950625 9.154375 4.5390625 9.484375 C 4.6830625 9.154375 4.8491562 8.7869063 5.0351562 8.3789062 C 5.2271563 7.9649062 5.4211406 7.5469531 5.6191406 7.1269531 C 5.8231406 6.7009531 6.0284219 6.2923438 6.2324219 5.9023438 C 6.4364219 5.5063438 6.6285938 5.159375 6.8085938 4.859375 L 7.3203125 4.859375 C 7.4223125 5.807375 7.5062656 6.7998906 7.5722656 7.8378906 C 7.6442656 8.8758906 7.7077187 9.9617029 7.7617188 11.095703 L 7.140625 11.095703 C 7.104625 10.129703 7.063625 9.2080312 7.015625 8.3320312 C 6.973625 7.4500313 6.9119844 6.6347656 6.8339844 5.8847656 C 6.7859844 5.9687656 6.711375 6.1124063 6.609375 6.3164062 C 6.507375 6.5204063 6.3898125 6.7573437 6.2578125 7.0273438 C 6.1258125 7.2973438 5.98775 7.5883906 5.84375 7.9003906 C 5.69975 8.2063906 5.559875 8.5067812 5.421875 8.8007812 C 5.283875 9.0887812 5.1569687 9.3555625 5.0429688 9.6015625 C 4.9349687 9.8475625 4.8510156 10.045312 4.7910156 10.195312 L 4.2421875 10.195312 C 4.1821875 10.045312 4.0964219 9.8475625 3.9824219 9.6015625 C 3.8744219 9.3555625 3.7512813 9.0887813 3.6132812 8.8007812 C 3.4752812 8.5067812 3.3334531 8.2063906 3.1894531 7.9003906 C 3.0454531 7.5883906 2.9073906 7.2973438 2.7753906 7.0273438 C 2.6433906 6.7573437 2.5258281 6.5204063 2.4238281 6.3164062 C 2.3218281 6.1124063 2.2472187 5.9687656 2.1992188 5.8847656 C 2.1212187 6.6347656 2.0577656 7.4500312 2.0097656 8.3320312 C 1.9677656 9.2080313 1.9305313 10.129703 1.8945312 11.095703 L 1.2910156 11.095703 C 1.3450156 9.9617029 1.4047031 8.8758906 1.4707031 7.8378906 C 1.5427031 6.7998906 1.6304219 5.807375 1.7324219 4.859375 z M 9.7441406 4.9667969 L 9.7441406 6.4433594 L 11.597656 6.4433594 L 11.597656 6.9375 L 9.7441406 6.9375 L 9.7441406 9.4121094 C 9.7441406 9.6761094 9.7646406 9.8925467 9.8066406 10.060547 C 9.8546406 10.222547 9.9199064 10.349453 10.003906 10.439453 C 10.087906 10.529453 10.190547 10.589141 10.310547 10.619141 C 10.430547 10.649141 10.563031 10.664062 10.707031 10.664062 C 10.953031 10.664062 11.150781 10.636031 11.300781 10.582031 C 11.450781 10.522031 11.568344 10.469875 11.652344 10.421875 L 11.794922 10.90625 C 11.710922 10.96025 11.565469 11.023703 11.355469 11.095703 C 11.145469 11.161703 10.915922 11.195313 10.669922 11.195312 C 10.381922 11.195312 10.139406 11.159891 9.9414062 11.087891 C 9.7494062 11.009891 9.5946094 10.894141 9.4746094 10.744141 C 9.3606094 10.588141 9.2784687 10.397922 9.2304688 10.169922 C 9.1824688 9.9419217 9.1582031 9.671375 9.1582031 9.359375 L 9.1582031 5.0742188 L 9.7441406 4.9667969 z M 13.380859 8.7539062 C 13.774759 8.7539062 14.070631 8.851875 14.269531 9.046875 C 14.468431 9.237975 14.568359 9.5044563 14.568359 9.8476562 C 14.568359 9.9997563 14.540928 10.14475 14.486328 10.28125 C 14.431728 10.41385 14.359225 10.543169 14.265625 10.667969 C 14.175925 10.792769 14.072078 10.912297 13.955078 11.029297 C 13.838078 11.146297 13.718556 11.263859 13.597656 11.380859 C 13.496256 11.478359 13.396328 11.578288 13.298828 11.679688 C 13.205228 11.777187 13.120969 11.877116 13.042969 11.978516 C 12.968869 12.076016 12.908128 12.172031 12.861328 12.269531 C 12.818428 12.363131 12.796875 12.457181 12.796875 12.550781 L 12.796875 12.5625 L 14.708984 12.5625 L 14.708984 12.896484 L 12.375 12.896484 C 12.375 12.888684 12.373074 12.874969 12.369141 12.855469 L 12.369141 12.755859 C 12.369141 12.572559 12.40245 12.402094 12.46875 12.246094 C 12.53505 12.086194 12.619303 11.937275 12.720703 11.796875 C 12.826003 11.656475 12.939653 11.525197 13.064453 11.404297 C 13.193153 11.283397 13.316594 11.165834 13.433594 11.052734 C 13.531094 10.959134 13.623184 10.869003 13.708984 10.783203 C 13.798684 10.693503 13.877059 10.603366 13.943359 10.509766 C 14.009659 10.416166 14.062563 10.316237 14.101562 10.210938 C 14.140562 10.105638 14.160156 9.9900344 14.160156 9.8652344 C 14.160156 9.5922344 14.0857 9.39825 13.9375 9.28125 C 13.7932 9.16035 13.609019 9.0996094 13.386719 9.0996094 C 13.261919 9.0996094 13.150234 9.1152844 13.052734 9.1464844 C 12.955234 9.1776844 12.870975 9.2149125 12.796875 9.2578125 C 12.726675 9.2968125 12.665934 9.3379594 12.615234 9.3808594 C 12.564534 9.4237594 12.527306 9.4570688 12.503906 9.4804688 L 12.304688 9.2167969 C 12.328088 9.1894969 12.369234 9.1503094 12.427734 9.0996094 C 12.490134 9.0450094 12.56655 8.9921062 12.65625 8.9414062 C 12.74985 8.8907063 12.857616 8.8476 12.978516 8.8125 C 13.099416 8.7735 13.232659 8.7539063 13.380859 8.7539062 z "
     id="path4" />
</svg>

<svg xmlns="http://www.w3.org/2000/svg" viewBox="0 0 16 16">
 <path d="m 1.6 0 c -0.886 0 -1.6 0.713 -1.6 1.6 l 0 12.801 c 0 0.886 0.713 1.6 1.6 1.6 l 12.801 0 c 0.886 0 1.6 -0.713 1.6 -1.6 l 0 -12.801 c 0 -0.886 -0.713 -1.6 -1.6 -1.6 l -12.801 0 z m 0.133 4.859 l 0.539 0 c 0.18 0.3 0.372 0.647 0.576 1.043 c 0.204 0.39 0.406 0.799 0.604 1.225 c 0.204 0.42 0.398 0.838 0.584 1.252 c 0.192 0.408 0.36 0.775 0.504 1.105 c 0.144 -0.33 0.31 -0.697 0.496 -1.105 c 0.192 -0.414 0.386 -0.832 0.584 -1.252 c 0.204 -0.426 0.409 -0.835 0.613 -1.225 c 0.204 -0.396 0.396 -0.743 0.576 -1.043 l 0.512 0 c 0.102 0.948 0.186 1.941 0.252 2.979 c 0.072 1.038 0.135 2.124 0.189 3.258 l -0.621 0 c -0.036 -0.966 -0.077 -1.888 -0.125 -2.764 c -0.042 -0.882 -0.104 -1.697 -0.182 -2.447 c -0.048 0.084 -0.123 0.228 -0.225 0.432 c -0.102 0.204 -0.22 0.441 -0.352 0.711 c -0.132 0.27 -0.27 0.561 -0.414 0.873 c -0.144 0.306 -0.284 0.606 -0.422 0.9 c -0.138 0.288 -0.265 0.555 -0.379 0.801 c -0.108 0.246 -0.192 0.444 -0.252 0.594 l -0.549 0 c -0.06 -0.15 -0.146 -0.348 -0.26 -0.594 c -0.108 -0.246 -0.231 -0.513 -0.369 -0.801 c -0.138 -0.294 -0.28 -0.594 -0.424 -0.9 c -0.144 -0.312 -0.282 -0.603 -0.414 -0.873 c -0.132 -0.27 -0.25 -0.507 -0.352 -0.711 c -0.102 -0.204 -0.177 -0.348 -0.225 -0.432 c -0.078 0.75 -0.141 1.565 -0.189 2.447 c -0.042 0.876 -0.079 1.798 -0.115 2.764 l -0.604 0 c 0.054 -1.134 0.114 -2.22 0.18 -3.258 c 0.072 -1.038 0.16 -2.031 0.262 -2.979 z m 8.01 0.107 l 0 1.477 l 1.854 0 l 0 0.494 l -1.854 0 l 0 2.475 c 0 0.264 0.021 0.48 0.063 0.648 c 0.048 0.162 0.113 0.289 0.197 0.379 c 0.084 0.09 0.187 0.15 0.307 0.18 c 0.12 0.03 0.252 0.045 0.396 0.045 c 0.246 0 0.444 -0.028 0.594 -0.082 c 0.15 -0.06 0.268 -0.112 0.352 -0.16 l 0.143 0.484 c -0.084 0.054 -0.229 0.117 -0.439 0.189 c -0.21 0.066 -0.44 0.1 -0.686 0.1 c -0.288 0 -0.531 -0.035 -0.729 -0.107 c -0.192 -0.078 -0.347 -0.194 -0.467 -0.344 c -0.114 -0.156 -0.196 -0.346 -0.244 -0.574 c -0.048 -0.228 -0.072 -0.499 -0.072 -0.811 l 0 -4.285 l 0.586 -0.107 z m 3.637 3.787 c 0.394 0 0.69 0.098 0.889 0.293 c 0.199 0.191 0.299 0.458 0.299 0.801 c 0 0.152 -0.027 0.297 -0.082 0.434 c -0.055 0.133 -0.127 0.262 -0.221 0.387 c -0.09 0.125 -0.194 0.244 -0.311 0.361 c -0.117 0.117 -0.237 0.235 -0.357 0.352 c -0.101 0.098 -0.201 0.197 -0.299 0.299 c -0.094 0.097 -0.178 0.197 -0.256 0.299 c -0.074 0.097 -0.135 0.194 -0.182 0.291 c -0.043 0.094 -0.064 0.188 -0.064 0.281 l 0 0.012 l 1.912 0 l 0 0.334 l -2.334 0 c 0 -0.008 -0.002 -0.022 -0.006 -0.041 l 0 -0.1 c 0 -0.183 0.033 -0.354 0.1 -0.51 c 0.066 -0.16 0.151 -0.309 0.252 -0.449 c 0.105 -0.14 0.219 -0.272 0.344 -0.393 c 0.129 -0.121 0.252 -0.238 0.369 -0.352 c 0.098 -0.094 0.19 -0.184 0.275 -0.27 c 0.09 -0.09 0.168 -0.18 0.234 -0.273 c 0.066 -0.094 0.119 -0.194 0.158 -0.299 c 0.039 -0.105 0.059 -0.221 0.059 -0.346 c 0 -0.273 -0.074 -0.467 -0.223 -0.584 c -0.144 -0.121 -0.328 -0.182 -0.551 -0.182 c -0.125 0 -0.236 0.016 -0.334 0.047 c -0.097 0.031 -0.182 0.068 -0.256 0.111 c -0.07 0.039 -0.131 0.08 -0.182 0.123 c -0.051 0.043 -0.088 0.076 -0.111 0.1 l -0.199 -0.264 c 0.023 -0.027 0.065 -0.066 0.123 -0.117 c 0.062 -0.055 0.139 -0.108 0.229 -0.158 c 0.094 -0.051 0.201 -0.094 0.322 -0.129 c 0.121 -0.039 0.254 -0.059 0.402 -0.059 z" style="fill:#353535;fill-opacity:1"/>
</svg>
